assets/icons/watchlight.svg

<svg width="24" height="24" viewBox="0 0 24 24" fill="none" xmlns="http://www.w3.org/2000/svg">
<path d="M9 22H15C20 22 22 20 22 15V9C22 4 20 2 15 2H9C4 2 2 4 2 9V15C2 20 4 22 9 22Z" stroke="#5E6875" stroke-width="1.5" stroke-linecap="round" stroke-linejoin="round"/>
<path d="M9.09961 12.0005V10.5205C9.09961 8.61048 10.4496 7.84048 12.0996 8.79048L13.3796 9.53048L14.6596 10.2705C16.3096 11.2205 16.3096 12.7805 14.6596 13.7305L13.3796 14.4705L12.0996 15.2105C10.4496 16.1605 9.09961 15.3805 9.09961 13.4805V12.0005Z" stroke="#5E6875" stroke-width="1.5" stroke-miterlimit="10" stroke-linecap="round" stroke-linejoin="round"/>
</svg>

<svg width="24" height="24" viewBox="0 0 24 24" fill="none" xmlns="http://www.w3.org/2000/svg"><path d="M9 22h6c5 0 7-2 7-7V9c0-5-2-7-7-7H9C4 2 2 4 2 9v6c0 5 2 7 7 7" stroke="#5E6875" stroke-width="1.5" stroke-linecap="round" stroke-linejoin="round"/><path d="M9.1 12v-1.48c0-1.91 1.35-2.68 3-1.73l1.28.74 1.28.74c1.65.95 1.65 2.51 0 3.46l-1.28.74-1.28.74c-1.65.95-3 .17-3-1.73z" stroke="#5E6875" stroke-width="1.5" stroke-miterlimit="10" stroke-linecap="round" stroke-linejoin="round"/></svg>
